X:1
T:Nelly Bly
C:Stephen C. Foster
R:Song
M:4/4
L:1/8
Z: Contributed 2015-06-08 21:40:01 by VEDA VBUSINESS@ROADRUNNER.COM
K:D
"D"FGA2FGA2|FGAB"A"E2zG|"D"FGAA "G"Bcdd|
"A"cdec"D"d3z|FGAA FGAA|FGAB"A"E2zG|
"D"FGAA "G"Bcdd|"A"cdec"D"d4|:f2dd"G"d2BB|
"D"ABAF"A"E3G|"D"FGA2 "G"Bcdd|"A"cdec"D"d3z:||

